src/Static/Positions/ks-position-47.svg

<?xml version="1.0" encoding="UTF-8"?>
<svg width="218px" height="204px" viewBox="0 0 218 204" version="1.1" xmlns="http://www.w3.org/2000/svg" xmlns:xlink="http://www.w3.org/1999/xlink">
    <title>sex-etsy-47</title>
    <defs>
        <circle id="path-1" cx="96.863" cy="22.5043" r="22.5"></circle>
        <filter x="-18.9%" y="-14.4%" width="137.8%" height="137.8%" filterUnits="objectBoundingBox" id="filter-2">
            <feMorphology radius="1.5" operator="dilate" in="SourceAlpha" result="shadowSpreadOuter1"></feMorphology>
            <feOffset dx="0" dy="2" in="shadowSpreadOuter1" result="shadowOffsetOuter1"></feOffset>
            <feGaussianBlur stdDeviation="2" in="shadowOffsetOuter1" result="shadowBlurOuter1"></feGaussianBlur>
            <feComposite in="shadowBlurOuter1" in2="SourceAlpha" operator="out" result="shadowBlurOuter1"></feComposite>
            <feColorMatrix values="0 0 0 0 0   0 0 0 0 0   0 0 0 0 0  0 0 0 0.5 0" type="matrix" in="shadowBlurOuter1"></feColorMatrix>
        </filter>
        <path d="M109.0742,138.9805 C107.5703,139.7954 105.876,140.2261 104.1738,140.2261 C100.3867,140.2261 96.914,138.1597 95.1103,134.8325 L80.7562,108.3428 C75.69,111.1191 72.3712,117.5131 70.7776,123.8101 L87.3408,175.4004 C88.7812,179.8877 87.9844,184.8389 85.208,188.645 C83.9946,190.3092 82.4447,191.6586 80.7047,192.6748 L91.25,192.6748 C94.4502,192.6748 97.4746,191.2158 99.4668,188.7114 C101.459,186.2075 102.2002,182.9316 101.4814,179.8139 L92.8769,142.5273 C100.8481,144.4055 110.5004,147.6572 121.4472,153.4782 C123.1479,166.0641 133.105,168.7721 138.9079,166.2912 L134.1777,145.9145 C133.6464,143.6249 134.0381,141.2651 135.2812,139.2705 C136.5244,137.2754 138.4707,135.8843 140.7607,135.353 C141.417,135.2007 142.0878,135.124 142.7558,135.124 C146.8691,135.124 150.3915,137.9248 151.3222,141.935 L153.9722,153.3506 C154.4092,153.37 154.8365,153.3823 155.3007,153.4216 C161.2692,146.1577 161.0428,135.5045 150.6448,128.8579 C146.7722,129.0945 142.9751,128.6831 139.6366,126.8102 C138.8376,126.362 138.1234,125.8938 137.4464,125.4181 C130.8131,125.3532 122.9153,125.8321 110.0716,119.2009 L113.2235,125.0175 C115.9287,130.0113 114.0674,136.2754 109.0742,138.9805 Z" id="path-3"></path>
        <filter x="-9.7%" y="-8.3%" width="119.3%" height="120.7%" filterUnits="objectBoundingBox" id="filter-4">
            <feMorphology radius="1.5" operator="dilate" in="SourceAlpha" result="shadowSpreadOuter1"></feMorphology>
            <feOffset dx="0" dy="2" in="shadowSpreadOuter1" result="shadowOffsetOuter1"></feOffset>
            <feGaussianBlur stdDeviation="2" in="shadowOffsetOuter1" result="shadowBlurOuter1"></feGaussianBlur>
            <feComposite in="shadowBlurOuter1" in2="SourceAlpha" operator="out" result="shadowBlurOuter1"></feComposite>
            <feColorMatrix values="0 0 0 0 0   0 0 0 0 0   0 0 0 0 0  0 0 0 0.5 0" type="matrix" in="shadowBlurOuter1"></feColorMatrix>
        </filter>
        <path d="M149.082,142.4551 C148.2705,138.9585 144.7812,136.7827 141.2802,137.5933 C137.7831,138.4048 135.6064,141.898 136.4179,145.3946 L146.1679,187.3946 C146.8525,190.3399 149.4765,192.4249 152.4999,192.4249 L195.7499,192.4249 C199.3397,192.4249 202.2499,189.5147 202.2499,185.9249 C202.2499,182.3351 199.3397,179.4249 195.7499,179.4249 L157.664,179.4249 L149.082,142.4551 Z" id="path-5"></path>
        <filter x="-12.9%" y="-11.8%" width="125.8%" height="130.9%" filterUnits="objectBoundingBox" id="filter-6">
            <feMorphology radius="1.5" operator="dilate" in="SourceAlpha" result="shadowSpreadOuter1"></feMorphology>
            <feOffset dx="0" dy="2" in="shadowSpreadOuter1" result="shadowOffsetOuter1"></feOffset>
            <feGaussianBlur stdDeviation="2" in="shadowOffsetOuter1" result="shadowBlurOuter1"></feGaussianBlur>
            <feComposite in="shadowBlurOuter1" in2="SourceAlpha" operator="out" result="shadowBlurOuter1"></feComposite>
            <feColorMatrix values="0 0 0 0 0   0 0 0 0 0   0 0 0 0 0  0 0 0 0.5 0" type="matrix" in="shadowBlurOuter1"></feColorMatrix>
        </filter>
        <path d="M140.7626,124.8049 C151.0231,130.5615 167.6129,120.4228 174.2831,124.7327 C175.5744,124.1687 176.9296,123.7061 178.3485,123.3712 C179.5272,123.0929 180.7064,122.9093 181.8785,122.8129 C178.4082,115.9204 171.4719,108.9197 155.0529,113.5728 C138.917,118.1457 134.9236,113.336 133.9847,108.8915 C133.0455,104.4471 127.4491,117.3355 140.7626,124.8049 Z" id="path-7"></path>
        <filter x="-17.0%" y="-34.9%" width="135.7%" height="191.0%" filterUnits="objectBoundingBox" id="filter-8">
            <feMorphology radius="1.5" operator="dilate" in="SourceAlpha" result="shadowSpreadOuter1"></feMorphology>
            <feOffset dx="0" dy="2" in="shadowSpreadOuter1" result="shadowOffsetOuter1"></feOffset>
            <feGaussianBlur stdDeviation="2" in="shadowOffsetOuter1" result="shadowBlurOuter1"></feGaussianBlur>
            <feComposite in="shadowBlurOuter1" in2="SourceAlpha" operator="out" result="shadowBlurOuter1"></feComposite>
            <feColorMatrix values="0 0 0 0 0   0 0 0 0 0   0 0 0 0 0  0 0 0 0.5 0" type="matrix" in="shadowBlurOuter1"></feColorMatrix>
        </filter>
        <circle id="path-9" cx="183.818856" cy="146.548153" r="21.4998495"></circle>
        <filter x="-19.8%" y="-15.1%" width="139.5%" height="139.5%" filterUnits="objectBoundingBox" id="filter-10">
            <feMorphology radius="1.5" operator="dilate" in="SourceAlpha" result="shadowSpreadOuter1"></feMorphology>
            <feOffset dx="0" dy="2" in="shadowSpreadOuter1" result="shadowOffsetOuter1"></feOffset>
            <feGaussianBlur stdDeviation="2" in="shadowOffsetOuter1" result="shadowBlurOuter1"></feGaussianBlur>
            <feComposite in="shadowBlurOuter1" in2="SourceAlpha" operator="out" result="shadowBlurOuter1"></feComposite>
            <feColorMatrix values="0 0 0 0 0   0 0 0 0 0   0 0 0 0 0  0 0 0 0.5 0" type="matrix" in="shadowBlurOuter1"></feColorMatrix>
        </filter>
        <path d="M73.25,192.4249 C77.2432,192.4249 80.9971,190.5167 83.3496,187.2896 C85.7031,184.063 86.3721,179.9063 85.1514,176.1036 L66.0303,116.5482 C66.7045,108.3439 69.0117,99.8606 71.8058,91.8254 L58.4434,67.1656 C55.7383,62.1719 57.5996,55.9078 62.5928,53.2027 C64.0957,52.3878 65.7901,51.9566 67.4922,51.9566 C71.2793,51.9566 74.7529,54.0235 76.5567,57.3506 L81.7704,66.9722 C85.6076,57.973 83.9706,46.7054 76.4507,43.1729 C68.4878,39.4305 55.4492,41.5823 47.6729,54.9722 C37.0894,73.4458 33.1104,86.0446 31.3443,108.3396 C31.3082,120.364 36.9459,125.59 43.5084,128.1789 L56.1085,167.4247 L12.5,167.4247 C5.5967,167.4247 0,173.0209 0,179.9247 C0,186.828 5.5967,192.4249 12.5,192.4249 L73.25,192.4249 L73.25,192.4249 Z" id="path-11"></path>
        <filter x="-9.9%" y="-4.3%" width="119.8%" height="111.3%" filterUnits="objectBoundingBox" id="filter-12">
            <feMorphology radius="1.5" operator="dilate" in="SourceAlpha" result="shadowSpreadOuter1"></feMorphology>
            <feOffset dx="0" dy="2" in="shadowSpreadOuter1" result="shadowOffsetOuter1"></feOffset>
            <feGaussianBlur stdDeviation="2" in="shadowOffsetOuter1" result="shadowBlurOuter1"></feGaussianBlur>
            <feComposite in="shadowBlurOuter1" in2="SourceAlpha" operator="out" result="shadowBlurOuter1"></feComposite>
            <feColorMatrix values="0 0 0 0 0   0 0 0 0 0   0 0 0 0 0  0 0 0 0.5 0" type="matrix" in="shadowBlurOuter1"></feColorMatrix>
        </filter>
        <path d="M74.5342,58.4468 C72.4287,54.562 67.5703,53.1197 63.6885,55.2246 C59.8037,57.3296 58.3614,62.185 60.4658,66.0698 L97.1328,133.7363 C98.582,136.4096 101.333,137.9262 104.1738,137.9262 C105.4609,137.9262 106.7676,137.6147 107.9785,136.9584 C111.8633,134.8534 113.3056,129.998 111.2012,126.1132 L74.5342,58.4468 Z" id="path-13"></path>
        <filter x="-16.1%" y="-7.8%" width="132.3%" height="120.3%" filterUnits="objectBoundingBox" id="filter-14">
            <feMorphology radius="1.5" operator="dilate" in="SourceAlpha" result="shadowSpreadOuter1"></feMorphology>
            <feOffset dx="0" dy="2" in="shadowSpreadOuter1" result="shadowOffsetOuter1"></feOffset>
            <feGaussianBlur stdDeviation="2" in="shadowOffsetOuter1" result="shadowBlurOuter1"></feGaussianBlur>
            <feComposite in="shadowBlurOuter1" in2="SourceAlpha" operator="out" result="shadowBlurOuter1"></feComposite>
            <feColorMatrix values="0 0 0 0 0   0 0 0 0 0   0 0 0 0 0  0 0 0 0.5 0" type="matrix" in="shadowBlurOuter1"></feColorMatrix>
        </filter>
    </defs>
    <g id="Page-2" stroke="none" stroke-width="1" fill="none" fill-rule="evenodd">
        <g id="sex-etsy-47" transform="translate(6.000000, 4.000000)" fill-rule="nonzero">
            <g id="Oval">
                <use fill="black" fill-opacity="1" filter="url(#filter-2)" xlink:href="#path-1"></use>
                <use stroke="#1A1A1D" stroke-width="3" fill="#4E4E50" xlink:href="#path-1"></use>
            </g>
            <g id="Path">
                <use fill="black" fill-opacity="1" filter="url(#filter-4)" xlink:href="#path-3"></use>
                <use stroke="#1A1A1D" stroke-width="3" fill="#6F2232" xlink:href="#path-3"></use>
            </g>
            <g id="Path">
                <use fill="black" fill-opacity="1" filter="url(#filter-6)" xlink:href="#path-5"></use>
                <use stroke="#1A1A1D" stroke-width="3" fill="#6F2232" xlink:href="#path-5"></use>
            </g>
            <g id="Path">
                <use fill="black" fill-opacity="1" filter="url(#filter-8)" xlink:href="#path-7"></use>
                <use stroke="#1A1A1D" stroke-width="3" fill="#6F2232" xlink:href="#path-7"></use>
            </g>
            <g id="Oval" transform="translate(183.818856, 146.548153) rotate(-58.277638) translate(-183.818856, -146.548153) ">
                <use fill="black" fill-opacity="1" filter="url(#filter-10)" xlink:href="#path-9"></use>
                <use stroke="#1A1A1D" stroke-width="3" fill="#6F2232" xlink:href="#path-9"></use>
            </g>
            <g id="Path">
                <use fill="black" fill-opacity="1" filter="url(#filter-12)" xlink:href="#path-11"></use>
                <use stroke="#1A1A1D" stroke-width="3" fill="#4E4E50" xlink:href="#path-11"></use>
            </g>
            <g id="Path">
                <use fill="black" fill-opacity="1" filter="url(#filter-14)" xlink:href="#path-13"></use>
                <use stroke="#1A1A1D" stroke-width="3" fill="#4E4E50" xlink:href="#path-13"></use>
            </g>
        </g>
    </g>
</svg>

<svg xmlns="http://www.w3.org/2000/svg" xmlns:xlink="http://www.w3.org/1999/xlink" width="218" height="204"><defs><filter id="g" width="135.7%" height="191%" x="-17%" y="-34.9%" filterUnits="objectBoundingBox"><feMorphology in="SourceAlpha" operator="dilate" radius="1.5" result="shadowSpreadOuter1"/><feOffset dy="2" in="shadowSpreadOuter1" result="shadowOffsetOuter1"/><feGaussianBlur in="shadowOffsetOuter1" result="shadowBlurOuter1" stdDeviation="2"/><feComposite in="shadowBlurOuter1" in2="SourceAlpha" operator="out" result="shadowBlurOuter1"/><feColorMatrix in="shadowBlurOuter1" values="0 0 0 0 0 0 0 0 0 0 0 0 0 0 0 0 0 0 0.5 0"/></filter><filter id="m" width="132.3%" height="120.3%" x="-16.1%" y="-7.8%" filterUnits="objectBoundingBox"><feMorphology in="SourceAlpha" operator="dilate" radius="1.5" result="shadowSpreadOuter1"/><feOffset dy="2" in="shadowSpreadOuter1" result="shadowOffsetOuter1"/><feGaussianBlur in="shadowOffsetOuter1" result="shadowBlurOuter1" stdDeviation="2"/><feComposite in="shadowBlurOuter1" in2="SourceAlpha" operator="out" result="shadowBlurOuter1"/><feColorMatrix in="shadowBlurOuter1" values="0 0 0 0 0 0 0 0 0 0 0 0 0 0 0 0 0 0 0.5 0"/></filter><filter id="k" width="119.8%" height="111.3%" x="-9.9%" y="-4.3%" filterUnits="objectBoundingBox"><feMorphology in="SourceAlpha" operator="dilate" radius="1.5" result="shadowSpreadOuter1"/><feOffset dy="2" in="shadowSpreadOuter1" result="shadowOffsetOuter1"/><feGaussianBlur in="shadowOffsetOuter1" result="shadowBlurOuter1" stdDeviation="2"/><feComposite in="shadowBlurOuter1" in2="SourceAlpha" operator="out" result="shadowBlurOuter1"/><feColorMatrix in="shadowBlurOuter1" values="0 0 0 0 0 0 0 0 0 0 0 0 0 0 0 0 0 0 0.5 0"/></filter><filter id="c" width="119.3%" height="120.7%" x="-9.7%" y="-8.3%" filterUnits="objectBoundingBox"><feMorphology in="SourceAlpha" operator="dilate" radius="1.5" result="shadowSpreadOuter1"/><feOffset dy="2" in="shadowSpreadOuter1" result="shadowOffsetOuter1"/><feGaussianBlur in="shadowOffsetOuter1" result="shadowBlurOuter1" stdDeviation="2"/><feComposite in="shadowBlurOuter1" in2="SourceAlpha" operator="out" result="shadowBlurOuter1"/><feColorMatrix in="shadowBlurOuter1" values="0 0 0 0 0 0 0 0 0 0 0 0 0 0 0 0 0 0 0.5 0"/></filter><filter id="i" width="139.5%" height="139.5%" x="-19.8%" y="-15.1%" filterUnits="objectBoundingBox"><feMorphology in="SourceAlpha" operator="dilate" radius="1.5" result="shadowSpreadOuter1"/><feOffset dy="2" in="shadowSpreadOuter1" result="shadowOffsetOuter1"/><feGaussianBlur in="shadowOffsetOuter1" result="shadowBlurOuter1" stdDeviation="2"/><feComposite in="shadowBlurOuter1" in2="SourceAlpha" operator="out" result="shadowBlurOuter1"/><feColorMatrix in="shadowBlurOuter1" values="0 0 0 0 0 0 0 0 0 0 0 0 0 0 0 0 0 0 0.5 0"/></filter><filter id="e" width="125.8%" height="130.9%" x="-12.9%" y="-11.8%" filterUnits="objectBoundingBox"><feMorphology in="SourceAlpha" operator="dilate" radius="1.5" result="shadowSpreadOuter1"/><feOffset dy="2" in="shadowSpreadOuter1" result="shadowOffsetOuter1"/><feGaussianBlur in="shadowOffsetOuter1" result="shadowBlurOuter1" stdDeviation="2"/><feComposite in="shadowBlurOuter1" in2="SourceAlpha" operator="out" result="shadowBlurOuter1"/><feColorMatrix in="shadowBlurOuter1" values="0 0 0 0 0 0 0 0 0 0 0 0 0 0 0 0 0 0 0.5 0"/></filter><filter id="a" width="137.8%" height="137.8%" x="-18.9%" y="-14.4%" filterUnits="objectBoundingBox"><feMorphology in="SourceAlpha" operator="dilate" radius="1.5" result="shadowSpreadOuter1"/><feOffset dy="2" in="shadowSpreadOuter1" result="shadowOffsetOuter1"/><feGaussianBlur in="shadowOffsetOuter1" result="shadowBlurOuter1" stdDeviation="2"/><feComposite in="shadowBlurOuter1" in2="SourceAlpha" operator="out" result="shadowBlurOuter1"/><feColorMatrix in="shadowBlurOuter1" values="0 0 0 0 0 0 0 0 0 0 0 0 0 0 0 0 0 0 0.5 0"/></filter><path id="h" d="M140.76 124.8c10.26 5.76 26.85-4.38 33.52-.07a23.82 23.82 0 017.6-1.92c-3.47-6.89-10.4-13.89-26.83-9.24-16.13 4.58-20.13-.23-21.07-4.68-.93-4.44-6.53 8.45 6.78 15.91z"/><path id="f" d="M149.08 142.46a6.5 6.5 0 10-12.66 2.93l9.75 42a6.5 6.5 0 006.33 5.03h43.25a6.5 6.5 0 000-13h-38.09l-8.58-36.96z"/><path id="l" d="M73.25 192.42a12.5 12.5 0 0011.9-16.32l-19.12-59.55c.67-8.2 2.98-16.69 5.78-24.72L58.44 67.17a10.31 10.31 0 0118.12-9.82l5.21 9.62c3.84-9 2.2-20.26-5.32-23.8-7.96-3.74-21-1.59-28.78 11.8-10.58 18.48-14.56 31.07-16.33 53.37-.03 12.02 5.6 17.25 12.17 19.84l12.6 39.24H12.5a12.5 12.5 0 000 25h60.75z"/><path id="d" d="M109.07 138.98a10.32 10.32 0 01-13.96-4.15l-14.35-26.49c-5.07 2.78-8.39 9.17-9.98 15.47l16.56 51.59c1.44 4.49.64 9.44-2.13 13.25a14.75 14.75 0 01-4.5 4.02h10.54a10.5 10.5 0 0010.23-12.86l-8.6-37.28a118.5 118.5 0 0128.57 10.95c1.7 12.58 11.65 15.3 17.46 12.81l-4.73-20.38a8.74 8.74 0 011.1-6.64 8.74 8.74 0 017.48-4.15c4.1 0 7.63 2.8 8.56 6.81l2.65 11.42c.44.02.87.03 1.33.07 5.97-7.26 5.74-17.92-4.66-24.56-3.87.23-7.66-.18-11-2.05-.8-.45-1.52-.92-2.2-1.4-6.63-.06-14.52.42-27.37-6.2l3.15 5.8c2.7 5 .85 11.27-4.15 13.97z"/><path id="n" d="M74.53 58.45a8 8 0 00-14.06 7.62l36.66 67.67a8 8 0 1014.07-7.63L74.53 58.45z"/><circle id="j" cx="183.819" cy="146.548" r="21.5"/><circle id="b" cx="96.863" cy="22.504" r="22.5"/></defs><g fill="none" fill-rule="nonzero"><g transform="translate(6 4)"><use fill="#000" filter="url(#a)" xlink:href="#b"/><use fill="#4E4E50" stroke="#1A1A1D" stroke-width="3" xlink:href="#b"/></g><g transform="translate(6 4)"><use fill="#000" filter="url(#c)" xlink:href="#d"/><use fill="#6F2232" stroke="#1A1A1D" stroke-width="3" xlink:href="#d"/></g><g transform="translate(6 4)"><use fill="#000" filter="url(#e)" xlink:href="#f"/><use fill="#6F2232" stroke="#1A1A1D" stroke-width="3" xlink:href="#f"/></g><g transform="translate(6 4)"><use fill="#000" filter="url(#g)" xlink:href="#h"/><use fill="#6F2232" stroke="#1A1A1D" stroke-width="3" xlink:href="#h"/></g><g transform="rotate(-58.278 190.406 143.167)"><use fill="#000" filter="url(#i)" xlink:href="#j"/><use fill="#6F2232" stroke="#1A1A1D" stroke-width="3" xlink:href="#j"/></g><g transform="translate(6 4)"><use fill="#000" filter="url(#k)" xlink:href="#l"/><use fill="#4E4E50" stroke="#1A1A1D" stroke-width="3" xlink:href="#l"/></g><g transform="translate(6 4)"><use fill="#000" filter="url(#m)" xlink:href="#n"/><use fill="#4E4E50" stroke="#1A1A1D" stroke-width="3" xlink:href="#n"/></g></g></svg>
